frontend/public/svg/files/file-notes.svg

<svg width="142" height="175" viewBox="0 0 142 175" fill="none" xmlns="http://www.w3.org/2000/svg">
<g clip-path="url(#clip0)">
<path d="M140.752 92.9149C140.931 109.419 141.172 125.923 141.258 142.428C141.289 148.261 140.831 154.095 140.799 159.93C140.753 168.3 134.285 173.398 126.669 173.562C111.067 173.9 95.4597 174.261 79.8566 174.183C61.7785 174.093 43.6996 173.617 25.6261 173.139C21.2519 172.945 16.8946 172.472 12.5807 171.723C7.61877 170.95 2.74729 165.02 2.48213 159.621C2.21959 154.243 2.00705 148.861 1.93748 143.479C1.61194 118.437 1.31912 93.3941 1.05921 68.3509C0.898405 53.64 0.837441 38.928 0.611661 24.2182C0.546027 20.0478 0.2454 15.8647 1.93219 11.9503C2.83728 9.66848 4.06552 7.52888 5.57938 5.59651C7.44339 3.37743 10.1928 2.53591 13.1325 2.45518C19.1925 2.28913 25.2631 2.24984 31.3086 1.85013C52.6435 0.440312 73.9752 1.54195 95.3094 1.70078C99.8474 1.73426 103.297 3.21707 106.644 6.39834C113.476 12.8902 120.808 18.8542 127.892 25.0828C130.589 27.4542 133.091 30.0504 135.828 32.3686C138.353 34.5095 139.333 37.202 139.428 40.3722C139.595 45.9832 139.861 51.5926 139.94 57.2043C140.106 69.1083 140.179 81.0129 140.291 92.9169L140.752 92.9149ZM93.45 10.1024C91.5112 9.94361 89.8553 9.71468 88.1961 9.68646C74.0507 9.44709 59.9063 9.22952 45.7618 9.03393C39.3678 8.94532 32.9724 8.90988 26.5777 8.87116C23.3288 8.85147 20.0726 8.74809 16.8316 8.91283C12.1966 9.14911 10.8348 10.4931 10.0058 15.1826C9.21518 19.3797 9.05254 23.671 9.52333 27.9158C9.74392 29.6982 9.85931 31.4918 9.86863 33.2877C9.94345 73.3679 10.0058 113.447 10.0557 153.524C10.0154 154.534 10.0528 155.545 10.1673 156.548C10.9733 161.668 13.6721 164.777 19.2569 165.003C40.9213 165.877 62.5856 165.872 84.2567 165.507C95.2582 165.322 106.261 165.232 117.263 165.106C119.954 165.075 122.652 165.182 125.336 165.041C129.755 164.802 132.091 162.379 132.041 157.938C131.988 153.006 131.623 148.076 131.54 143.144C131.444 137.42 131.638 131.69 131.474 125.969C131.071 111.72 130.376 97.4785 130.104 83.2281C129.881 71.5571 130.104 59.8783 130.114 48.2021C130.114 47.2609 130 46.3187 129.959 45.6991C126.061 45.6991 122.586 45.6859 119.11 45.703C115.517 45.7201 111.921 45.8563 108.332 45.769C106.202 45.7528 104.081 45.5104 102.002 45.0467C97.7543 44.0136 96.4495 42.3844 95.9553 38.0782C95.8148 36.8535 95.8076 35.613 95.6927 34.3844C94.9701 26.4525 94.2311 18.5265 93.45 10.1024ZM105.553 37.6462L124.915 36.4534L125.21 35.8009C117.548 29.2815 110.346 22.2513 102.271 16.0063C103.344 23.0744 104.415 30.1429 105.553 37.6462Z" fill="black"/>
<path d="M64.5578 110.884L84.0025 92.3747C83.2831 92.2447 82.5559 92.162 81.8254 92.1266C67.0119 92.6713 52.197 93.2023 37.3861 93.8193C34.0256 93.9591 30.681 94.4631 27.3219 94.6869C25.9874 94.7532 24.6495 94.6712 23.3332 94.4428C23.0479 94.4218 22.7697 94.3437 22.5156 94.2124C22.2616 94.0811 22.037 93.8987 21.8553 93.6782C21.6736 93.457 21.5387 93.2017 21.4589 92.9266C21.379 92.6523 21.3556 92.3642 21.3904 92.08C21.483 91.0082 21.9566 90.0059 22.7254 89.2531C23.7626 88.5909 24.9571 88.2141 26.1871 88.1629C36.6917 87.2231 47.1897 86.1605 57.7161 85.5376C67.128 84.9817 76.5701 84.9285 85.9991 84.6765C88.014 84.6227 90.0316 84.6686 92.4968 84.6686C95.6768 81.5182 99.0818 78.1052 102.539 74.7448C104.796 72.548 106.187 72.2697 108.535 73.5936C109.287 74.0766 109.942 74.6949 110.469 75.4155C112.789 78.3034 115.064 81.2241 117.346 84.1448C120.087 87.6543 119.709 90.0401 116.338 93.117C110.136 98.7786 104.048 104.564 97.3235 110.849C102.852 110.645 107.478 110.465 112.105 110.312C112.999 110.268 113.896 110.301 114.785 110.411C115.467 110.465 116.106 110.768 116.581 111.26C117.057 111.752 117.337 112.401 117.367 113.085C117.541 114.586 116.954 115.933 115.547 116.34C113.615 116.898 111.623 117.22 109.614 117.296C103.338 117.526 97.0544 117.592 90.39 117.728C86.2517 122.11 82.0853 126.635 77.7679 131.011C76.6397 132.086 75.2948 132.909 73.824 133.424C70.4616 134.671 66.8832 135.387 63.6212 136.834C58.3935 139.153 52.959 139.031 47.4648 139.088C41.0649 139.154 34.6661 139.464 28.2688 139.602C26.9234 139.642 25.5784 139.512 24.2653 139.216C23.5857 139.111 22.9715 138.751 22.5482 138.209C22.1248 137.667 21.9242 136.984 21.987 136.299C21.9868 135.614 22.2338 134.951 22.6827 134.432C23.1317 133.914 23.7526 133.575 24.4313 133.477C25.5375 133.297 26.6581 133.222 27.7785 133.252C37.2075 133.014 46.6372 132.797 56.0668 132.548C56.943 132.525 57.8153 132.33 58.828 132.197C59.9477 127.598 59.9437 123.045 59.9174 118.004C58.5614 118.004 57.3695 118.004 56.1763 118.004C46.8524 118.022 37.5292 118.07 28.2059 118.031C26.7602 117.994 25.3257 117.766 23.9397 117.354C23.3273 117.202 22.7973 116.819 22.4597 116.286C22.1221 115.753 22.0029 115.111 22.1269 114.493C22.1668 113.924 22.4146 113.389 22.8231 112.99C23.2316 112.592 23.7723 112.36 24.342 112.334C25.8854 112.045 27.4445 111.848 29.0112 111.743C38.2118 111.421 47.4139 111.138 56.6175 110.895C59.2967 110.821 61.9869 110.884 64.5578 110.884ZM95.2633 89.2466C85.6571 98.4425 75.751 106.746 66.6332 116.149L76.7493 124.222C85.323 115.369 93.692 106.727 102.108 98.0343L95.2633 89.2466ZM100.683 85.4168L108.006 92.2729L112.368 88.1813L105.943 79.049C104.257 81.0896 102.694 82.9825 100.683 85.4168ZM64.3221 120.415C64.3995 123.791 63.7216 126.559 64.4987 129.327C68.2943 128.75 69.4869 128.31 71.3437 126.797L64.3221 120.415Z" fill="black"/>
<path d="M69.9948 70.0309C60.4615 70.4903 50.9308 71.0206 41.3943 71.3921C36.2341 71.593 31.0634 71.5326 25.8974 71.5739C25.3359 71.5877 24.7749 71.5306 24.2277 71.4039C23.611 71.2989 23.0508 70.98 22.6452 70.5041C22.2396 70.0276 22.0146 69.4238 22.0094 68.7983C21.9772 68.1164 22.202 67.4469 22.6396 66.9231C23.0772 66.3987 23.6954 66.0583 24.3721 65.9685C25.0369 65.8641 25.7089 65.8123 26.3818 65.8127C39.6031 65.0061 52.8218 64.148 66.047 63.4155C73.4459 63.006 80.8572 62.8251 88.2614 62.5028C95.5526 62.1845 102.841 61.7935 110.132 61.485C112.257 61.3363 114.391 61.3527 116.513 61.5337C118.904 61.8055 120.035 63.0905 120.014 64.8987C119.993 66.7433 118.873 67.8525 116.45 68.1544C114.111 68.4458 111.755 68.6637 109.4 68.7504C96.2687 69.2315 83.1367 69.687 70.0027 70.1169L69.9948 70.0309Z" fill="black"/>
</g>
<defs>
<clipPath id="clip0">
<rect width="141.113" height="173.93" fill="white" transform="translate(0.407715 0.574219)"/>
</clipPath>
</defs>
</svg>

<svg xmlns="http://www.w3.org/2000/svg" width="142" height="175" fill="none" viewBox="0 0 142 175"><g fill="#000" clip-path="url(#a)"><path d="M140.752 92.915c.179 16.504.42 33.008.506 49.513.031 5.833-.427 11.667-.459 17.502-.046 8.37-6.514 13.468-14.13 13.632-15.602.338-31.21.699-46.812.621-18.078-.09-36.157-.566-54.23-1.044a103 103 0 0 1-13.046-1.416c-4.962-.773-9.834-6.703-10.099-12.102-.262-5.378-.475-10.76-.545-16.142a28667 28667 0 0 1-.878-75.128C.9 53.64.837 38.928.612 24.218c-.066-4.17-.367-8.353 1.32-12.268A25.6 25.6 0 0 1 5.58 5.597c1.864-2.22 4.614-3.061 7.554-3.142 6.06-.166 12.13-.205 18.176-.605 21.335-1.41 42.666-.308 64-.15 4.538.034 7.988 1.517 11.335 4.698 6.832 6.492 14.164 12.456 21.248 18.685 2.697 2.371 5.199 4.967 7.936 7.286 2.525 2.14 3.505 4.833 3.6 8.003.167 5.611.433 11.22.512 16.832.166 11.904.239 23.809.351 35.713zM93.45 10.102c-1.939-.158-3.595-.387-5.254-.416q-21.218-.358-42.434-.652c-6.394-.089-12.79-.124-19.184-.163-3.25-.02-6.505-.123-9.746.042-4.635.236-5.997 1.58-6.826 6.27a43.1 43.1 0 0 0-.483 12.733c.22 1.782.336 3.576.346 5.372q.111 60.12.187 120.236a20 20 0 0 0 .111 3.024c.806 5.12 3.505 8.229 9.09 8.455 21.664.874 43.329.869 65 .504 11.001-.185 22.004-.275 33.006-.401 2.691-.031 5.389.076 8.073-.065 4.419-.239 6.755-2.662 6.705-7.103-.053-4.932-.418-9.862-.501-14.794-.096-5.724.098-11.454-.066-17.175-.403-14.249-1.098-28.49-1.37-42.74-.223-11.672 0-23.35.01-35.027 0-.941-.114-1.883-.155-2.503-3.898 0-7.373-.013-10.849.004-3.593.017-7.189.153-10.778.066a30 30 0 0 1-6.33-.722c-4.248-1.033-5.552-2.663-6.047-6.969-.14-1.225-.147-2.465-.262-3.694-.723-7.931-1.462-15.858-2.243-24.282m12.103 27.544 19.362-1.193.295-.652c-7.662-6.52-14.864-13.55-22.939-19.795 1.073 7.068 2.144 14.137 3.282 21.64"/><path d="m64.558 110.884 19.444-18.51a17 17 0 0 0-2.177-.247c-14.813.544-29.628 1.075-44.439 1.692-3.36.14-6.705.644-10.064.868a18 18 0 0 1-3.989-.244 2.12 2.12 0 0 1-1.478-.765 2.1 2.1 0 0 1-.465-1.598 4.5 4.5 0 0 1 1.335-2.827 7 7 0 0 1 3.462-1.09c10.505-.94 21.003-2.002 31.53-2.625 9.411-.556 18.853-.61 28.282-.861 2.015-.054 4.033-.008 6.498-.008 3.18-3.15 6.585-6.564 10.042-9.924 2.257-2.197 3.648-2.475 5.996-1.151a7.3 7.3 0 0 1 1.934 1.822c2.32 2.887 4.595 5.808 6.877 8.729 2.741 3.51 2.363 5.895-1.008 8.972-6.202 5.662-12.29 11.447-19.014 17.732 5.528-.204 10.154-.384 14.781-.537a15.6 15.6 0 0 1 2.68.099 2.806 2.806 0 0 1 2.582 2.674c.174 1.501-.413 2.848-1.82 3.255-1.932.558-3.924.88-5.933.956-6.276.23-12.56.296-19.224.432-4.138 4.382-8.305 8.907-12.622 13.283a11 11 0 0 1-3.944 2.413c-3.362 1.247-6.94 1.963-10.203 3.41-5.227 2.319-10.662 2.197-16.156 2.254-6.4.066-12.799.376-19.196.514-1.346.04-2.69-.09-4.004-.386a2.7 2.7 0 0 1-2.278-2.917 2.85 2.85 0 0 1 2.444-2.822 18 18 0 0 1 3.348-.225c9.429-.238 18.858-.455 28.288-.704.876-.023 1.748-.218 2.761-.351 1.12-4.599 1.116-9.152 1.09-14.193h-3.742c-9.324.018-18.647.066-27.97.027a16.5 16.5 0 0 1-4.266-.677 2.45 2.45 0 0 1-1.813-2.861 2.33 2.33 0 0 1 .696-1.503 2.33 2.33 0 0 1 1.519-.656 40 40 0 0 1 4.67-.591q13.8-.483 27.606-.848c2.679-.074 5.369-.011 7.94-.011m30.705-21.637c-9.606 9.195-19.512 17.499-28.63 26.902l10.116 8.073c8.574-8.853 16.943-17.495 25.359-26.188zm5.42-3.83 7.323 6.856 4.362-4.092-6.425-9.132zm-36.36 34.998c.077 3.376-.601 6.144.176 8.912 3.795-.577 4.988-1.017 6.845-2.53zm5.672-50.385c-9.534.46-19.064.99-28.6 1.362-5.16.201-10.332.14-15.498.182a6.7 6.7 0 0 1-1.67-.17 2.67 2.67 0 0 1-2.218-2.606 2.725 2.725 0 0 1 2.363-2.83 13 13 0 0 1 2.01-.155c13.221-.807 26.44-1.665 39.665-2.398 7.399-.409 14.81-.59 22.214-.912 7.292-.319 14.58-.71 21.871-1.018a41 41 0 0 1 6.381.049c2.391.272 3.522 1.556 3.501 3.365-.021 1.844-1.141 2.954-3.564 3.255-2.339.292-4.695.51-7.05.596q-19.696.722-39.397 1.367z"/></g><defs><clipPath id="a"><path fill="#fff" d="M.408.574H141.52v173.93H.408z"/></clipPath></defs></svg>
